X: 132019
T: KINLOCH OF KINLOCH
Q: "Scotch Jig."
R: Jig.
%R: jig
B: James Kerr "Merry Melodies" v.1 p.32 s.0 #19
Z: 2016 John Chambers <jc:trillian.mit.edu>
M: 6/8
L: 1/8
K: D
uA |\
f>ed AFA | BGB AFA | f>ed AFA | Bdc ud2uA |\
f>ed AFA | BGB AFA | f>ed AFA | Bdc d2 ||
ua |\
vf2va ue2ua | d>ed c>BA | f2a e2a | ^g>fg a2a |\
b2b a2a | g>fg f>de | f>ed Bgf | eBc d2 |]

%%sep 1 1 500
%%sep 1 1 500

